X: 1
M:C|
L:1/8
K:G
uD2"^Segno"|\
(Bd)|\
g2(fg) egdf | gbag fdef | g2(fg) egdB | cedf g2d2 |
g2(fg) eg(df) | gbag fdef | gbaf gfed | eg(fa) gedB "^Segno"|]


